pix/silver/mowcapital.svg

<svg fill="none" height="27.269699" viewBox="0 0 200 27.269699" width="200" xmlns="http://www.w3.org/2000/svg"><path clip-rule="evenodd" d="m51.6437 0h3.8272s-3.5602 7.68771-6.9626 14.07c-3.0941 5.8035-6.798 11.9669-7.4442 13.0369-.0618.1021-.1714.1627-.2906.1627h-3.3194c-.1536 0-.2881-.1025-.3291-.2505l-3.5246-12.7669-7.1037 12.8413c-.0601.1087-.1745.1762-.2987.1762h-3.3097c-.1537 0-.2885-.1028-.3292-.2511l-6.2478-22.76968c-.0794-.28937-.4626-.34427-.6143-.08539-.8724 1.48909-3.0902 5.34904-5.97858 10.92187-3.29855 6.3642-5.16413 10.9413-5.57163 11.9671-.05216.1313-.17855.2172-.31979.2172h-3.827s3.55979-7.6877 6.96246-14.07c3.09414-5.80358 6.79794-11.96695 7.44414-13.036919.0617-.1020964.1713-.16273609.2906-.16273609h3.3193c.1536 0 .2883.10252609.3291.25054709l3.5246 12.766908 7.1037-12.841359c.0602-.1086846.1746-.176141.2988-.176141h3.3097c.1537 0 .2885.102785.3292.251062l6.2478 22.769638c.0795.2894.4626.3443.6142.0854.8726-1.4891 3.0903-5.349 5.9786-10.9218 3.2986-6.36426 5.164-10.94138 5.5717-11.967139.0522-.1312553.1785-.217161.3198-.217161zm-20.7523 4.43942 1.4774 5.3515-.0219.04011-.0005-.00174-7.1384 13.07371c-.1471.2693-.5471.223-.6287-.0728l-1.4777-5.3525.0218-.0401.0009.0028 7.1384-13.07377c.147-.26929.5471-.223.6287.07279zm165.7906 17.03518c.59.5735 1.59.8766 2.999.9093l.319-1.9168c-.36-.0492-.664-.1065-.909-.1721-.246-.0819-.443-.1966-.59-.344-.148-.1475-.254-.3441-.32-.5898-.065-.2458-.098-.5571-.098-.9339v-15.35946l-2.285.3932v15.33486c0 1.2124.295 2.1053.884 2.6787zm-27.493.6636h-2.285v-12.77912h2.285zm-1.155-15.08919c-.409 0-.762-.13106-1.057-.3932-.278-.27852-.417-.64714-.417-1.10588s.139-.81917.417-1.08131c.295-.27852.648-.41778 1.057-.41778.41 0 .754.13926 1.032.41778.295.26214.443.62257.443 1.08131s-.148.82736-.443 1.10588c-.278.26214-.622.3932-1.032.3932zm-39.478 14.86799c.983.3932 2.072.5898 3.268.5898.688 0 1.327-.041 1.917-.1229s1.106-.1802 1.548-.2949.811-.2293 1.106-.344c.295-.1311.5-.2376.614-.3195l-.614-1.966c-.36.1802-.901.385-1.622.6144-.721.2293-1.63.344-2.728.344-.95 0-1.786-.1638-2.506-.4915-.705-.3277-1.295-.7864-1.77-1.3762-.475-.6062-.835-1.3271-1.081-2.1626-.23-.8356-.344-1.7612-.344-2.777 0-1.0486.131-1.9906.393-2.8262.278-.8519.672-1.57277 1.18-2.16257.507-.58981 1.122-1.04035 1.843-1.35164.721-.31128 1.532-.46693 2.433-.46693.426 0 .843.04096 1.253.12288.426.06553.811.15564 1.155.27033.36.11468.68.22936.958.34405.279.11468.492.22117.639.31947l.689-1.96601c-.099-.06553-.279-.16383-.541-.2949s-.606-.26214-1.032-.3932c-.41-.13107-.901-.24576-1.475-.34406-.557-.0983-1.188-.14745-1.892-.14745-1.114 0-2.163.1966-3.146.58981-.983.3932-1.843.96662-2.58 1.72026s-1.327 1.6875-1.77 2.80157c-.425 1.09769-.638 2.35919-.638 3.78459 0 1.4253.188 2.6951.565 3.8091.393 1.0977.942 2.0234 1.646 2.777.705.7537 1.549 1.3271 2.532 1.7203zm-57.458-3.6371c.2785.6062.4997 1.1059.6635 1.4991h1.9169c.1638-.3932.3768-.8929.639-1.4991.2785-.6062.5734-1.2616.8847-1.966.3113-.7045.6389-1.4254.983-2.1627.3604-.7536.6963-1.4581 1.0075-2.1134.3113-.6717.598-1.2697.8602-1.794.2785-.52428.4997-.92568.6635-1.2042.1802 1.9333.3277 4.0303.4424 6.2912.1147 2.2446.213 4.5137.2949 6.8074h2.3346c-.2785-5.8653-.6963-11.5422-1.2533-17.03062h-2.0889c-.4424.72087-.9175 1.57281-1.4254 2.55581-.5079.98301-1.0157 2.01517-1.5236 3.09651-.5079 1.0649-.9994 2.138-1.4745 3.2193-.4752 1.0649-.9093 2.0398-1.3025 2.9245-.3932-.8847-.8274-1.8596-1.3025-2.9245-.4751-1.0813-.9666-2.1544-1.4745-3.2193-.5079-1.08134-1.0158-2.1135-1.5237-3.09651-.5079-.983-.983-1.83494-1.4253-2.55581h-2.0889c-.1475 1.22875-.2867 2.53124-.4178 3.90745-.1147 1.37617-.2294 2.79337-.3441 4.25147-.0983 1.4418-.1884 2.9163-.2703 4.4236-.0819 1.4909-.1556 2.9736-.2212 4.4481h2.3347c.0819-2.2937.1802-4.5628.2949-6.8074.1147-2.2609.2621-4.3579.4423-6.2912.1639.27852.3768.67992.639 1.2042.2785.5243.5734 1.1223.8847 1.794.3113.6553.6389 1.3598.983 2.1134.3604.7373.6963 1.4582 1.0076 2.1627.3113.7044.598 1.3598.8601 1.966zm25.1181.2211c.2949-.8191.4424-1.7366.4424-2.7524 0-.9994-.1475-1.9086-.4424-2.7278-.2949-.8356-.7126-1.5483-1.2533-2.1381-.5243-.5898-1.155-1.04031-1.8923-1.35159-.7372-.32767-1.54-.49151-2.4083-.49151-.8684 0-1.6712.16384-2.4084.49151-.7373.31128-1.3762.76179-1.9169 1.35159-.5242.5898-.9338 1.3025-1.2287 2.1381-.2949.8192-.4424 1.7284-.4424 2.7278 0 1.0158.1475 1.9333.4424 2.7524.2949.8192.7045 1.5237 1.2287 2.1135.5407.5898 1.1796 1.0486 1.9169 1.3762.7372.3113 1.54.467 2.4084.467.8683 0 1.6711-.1557 2.4083-.467.7373-.3276 1.368-.7864 1.8923-1.3762.5407-.5898.9584-1.2943 1.2533-2.1135zm-2.9244-6.1683c.6553.8355.983 1.9742.983 3.4159 0 1.4418-.3277 2.5886-.983 3.4406-.639.8355-1.5155 1.2533-2.6295 1.2533-1.1141 0-1.9988-.4178-2.6542-1.2533-.6389-.852-.9584-1.9988-.9584-3.4406 0-1.4417.3195-2.5804.9584-3.4159.6554-.852 1.5401-1.2779 2.6542-1.2779 1.114 0 1.9905.4259 2.6295 1.2779zm16.7143 9.8055c-.458-1.1796-.95-2.5231-1.474-4.0304-.508-1.5236-.975-3.1046-1.401-4.743-.426 1.6384-.893 3.2194-1.401 4.743-.508 1.5073-.991 2.8508-1.45 4.0304h-1.99c-.754-1.6875-1.491-3.6126-2.212-5.7752-.7208-2.1626-1.4007-4.4973-2.0396-7.00392h2.4576c.164.77002.36 1.60562.59 2.50662.229.9011.467 1.8022.712 2.7033.262.9011.533 1.7694.811 2.605.279.8355.541 1.5646.787 2.1872.278-.77.549-1.581.811-2.433.278-.8683.54-1.7366.786-2.6049.246-.8847.475-1.7449.688-2.5804.23-.852.426-1.6466.59-2.38382h1.892c.148.73722.328 1.53182.541 2.38382.213.8355.442 1.6957.688 2.5804.246.8683.5 1.7366.762 2.6049.278.852.557 1.663.835 2.433.246-.6226.5-1.3517.762-2.1872.279-.8356.549-1.7039.811-2.605s.508-1.8022.738-2.7033c.229-.901.426-1.7366.589-2.50662h2.36c-.639 2.50662-1.319 4.84132-2.04 7.00392s-1.458 4.0877-2.212 5.7752zm33.912-1.6466c.541 0 1.016-.0082 1.425-.0245.426-.0328.778-.082 1.057-.1475v-3.8091c-.164-.082-.434-.1475-.811-.1966-.36-.0656-.803-.0983-1.327-.0983-.344 0-.713.0245-1.106.0737-.377.0491-.729.1556-1.057.3195-.311.1474-.573.3604-.786.6389-.213.2621-.32.6144-.32 1.0567 0 .8192.263 1.3926.787 1.7203.524.3113 1.237.4669 2.138.4669zm-.197-11.452c.918 0 1.688.12288 2.31.36863.639.22937 1.147.56523 1.524 1.00757.393.426.672.9421.836 1.5482.163.5899.245 1.2452.245 1.9661v7.9869c-.196.0328-.475.0819-.835.1474-.344.0492-.737.0983-1.18.1475-.442.0491-.925.0901-1.45.1229-.508.0491-1.016.0737-1.523.0737-.721 0-1.385-.0737-1.991-.2212-.606-.1474-1.13-.3768-1.573-.6881-.442-.3277-.786-.7536-1.032-1.2779s-.369-1.155-.369-1.8923c0-.7045.14-1.3107.418-1.8185.295-.5079.688-.9175 1.18-1.2288.491-.3113 1.065-.5407 1.72-.6881.655-.1475 1.343-.2212 2.064-.2212.23 0 .467.0164.713.0492.246.0164.475.0491.688.0983.23.0327.426.0655.59.0983.164.0327.278.0573.344.0737v-.639c0-.3768-.041-.7454-.123-1.1058-.082-.3769-.229-.7045-.442-.9831-.213-.2949-.508-.5242-.885-.6881-.36-.1802-.835-.2703-1.425-.2703-.754 0-1.417.0574-1.991.172-.557.0983-.975.2048-1.253.3195l-.271-1.89227c.295-.13106.787-.25394 1.475-.36862.688-.13107 1.434-.19661 2.236-.19661zm16.477 3.2931c.737.8028 1.106 1.9496 1.106 3.4405 0 .6553-.066 1.2697-.197 1.8431-.131.5571-.344 1.0486-.639 1.4746-.295.4095-.68.7372-1.155.983-.458.2293-1.015.344-1.671.344-.622 0-1.196-.1065-1.72-.3195s-.926-.4341-1.204-.6635v-8.0607c.229-.0655.532-.1228.909-.172.393-.0491.934-.0737 1.622-.0737 1.229 0 2.212.4014 2.949 1.2042zm3.096 6.1192c.263-.8192.394-1.7121.394-2.6787 0-1.0322-.156-1.9578-.467-2.777-.295-.8355-.721-1.54-1.278-2.1135-.557-.5734-1.229-1.01573-2.015-1.32702-.787-.31128-1.671-.46693-2.654-.46693-1.065 0-2.007.08192-2.827.24576-.802.14745-1.474.28671-2.015.41777v16.93232h2.286v-5.1117c.278.1803.696.3687 1.253.5653.573.1966 1.229.2949 1.966.2949.918 0 1.729-.1639 2.433-.4915.721-.3277 1.327-.7864 1.819-1.3762.491-.5898.86-1.2943 1.105-2.1135zm16.805-9.09282h-4.841v-3.9566l-2.286.3932v11.40292c0 .8519.066 1.6055.197 2.2609.147.6389.393 1.1796.737 1.6219.344.4424.795.7783 1.352 1.0076.573.213 1.294.3195 2.162.3195.737 0 1.393-.0901 1.966-.2703.574-.1639.975-.3031 1.204-.4178l-.442-1.8923c-.164.0655-.459.1802-.885.3441-.409.1474-.958.2211-1.646.2211-.393 0-.737-.0491-1.032-.1474s-.541-.2622-.738-.4915c-.196-.2458-.344-.5734-.442-.983-.098-.426-.147-.9585-.147-1.5974v-5.8981h4.841zm7.233 11.13252c.541 0 1.016-.0082 1.426-.0245.426-.0328.778-.082 1.057-.1475v-3.8091c-.164-.082-.435-.1475-.811-.1966-.361-.0656-.803-.0983-1.327-.0983-.345 0-.713.0245-1.106.0737-.377.0491-.729.1556-1.057.3195-.311.1474-.574.3604-.787.6389-.212.2621-.319.6144-.319 1.0567 0 .8192.262 1.3926.786 1.7203.525.3113 1.237.4669 2.138.4669zm-.196-11.452c.917 0 1.687.12288 2.31.36863.639.22937 1.147.56523 1.524 1.00757.393.426.671.9421.835 1.5482.164.5899.246 1.2452.246 1.9661v7.9869c-.197.0328-.475.0819-.836.1474-.344.0492-.737.0983-1.179.1475-.443.0491-.926.0901-1.45.1229-.508.0491-1.016.0737-1.524.0737-.721 0-1.384-.0737-1.99-.2212-.607-.1474-1.131-.3768-1.573-.6881-.443-.3277-.787-.7536-1.032-1.2779-.246-.5243-.369-1.155-.369-1.8923 0-.7045.139-1.3107.418-1.8185.295-.5079.688-.9175 1.179-1.2288.492-.3113 1.065-.5407 1.721-.6881.655-.1475 1.343-.2212 2.064-.2212.229 0 .467.0164.713.0492.245.0164.475.0491.688.0983.229.0327.426.0655.59.0983.163.0327.278.0573.344.0737v-.639c0-.3768-.041-.7454-.123-1.1058-.082-.3769-.23-.7045-.443-.9831-.213-.2949-.508-.5242-.884-.6881-.361-.1802-.836-.2703-1.426-.2703-.753 0-1.417.0574-1.99.172-.557.0983-.975.2048-1.254.3195l-.27-1.89227c.295-.13106.786-.25394 1.475-.36862.688-.13107 1.433-.19661 2.236-.19661z" fill="#39393a" fill-rule="evenodd"/></svg>

<svg width="200" height="28" viewBox="0 0 200 28" fill="none" xmlns="http://www.w3.org/2000/svg">
<path fill-rule="evenodd" clip-rule="evenodd" d="M51.6437 0H55.4709C55.4709 0 51.9107 7.68771 48.5083 14.07C45.4142 19.8735 41.7103 26.0369 41.0641 27.1069C41.0023 27.209 40.8927 27.2696 40.7735 27.2696H37.4541C37.3005 27.2696 37.166 27.1671 37.125 27.0191L33.6004 14.2522L26.4967 27.0935C26.4366 27.2022 26.3222 27.2697 26.198 27.2697H22.8883C22.7346 27.2697 22.5998 27.1669 22.5591 27.0186L16.3113 4.24892C16.2319 3.95955 15.8487 3.90465 15.697 4.16353C14.8246 5.65262 12.6068 9.51257 9.71842 15.0854C6.41987 21.4496 4.55429 26.0267 4.14679 27.0525C4.09463 27.1838 3.96824 27.2697 3.827 27.2697H0C0 27.2697 3.55979 19.582 6.96246 13.1997C10.0566 7.39612 13.7604 1.23275 14.4066 0.162781C14.4683 0.0606846 14.5779 4.49121e-05 14.6972 4.49121e-05H18.0165C18.1701 4.49121e-05 18.3048 0.102571 18.3456 0.250592L21.8702 13.0175L28.9739 0.176141C29.0341 0.0674564 29.1485 0 29.2727 0H32.5824C32.7361 0 32.8709 0.102785 32.9116 0.251062L39.1594 23.0207C39.2389 23.3101 39.622 23.365 39.7736 23.1061C40.6462 21.617 42.8639 17.7571 45.7522 12.1843C49.0508 5.82004 50.9162 1.24292 51.3239 0.217161C51.3761 0.0859057 51.5024 0 51.6437 0ZM30.8914 4.43942L32.3688 9.79092L32.3469 9.83103L32.3464 9.82929L25.208 22.903C25.0609 23.1723 24.6609 23.126 24.5793 22.8302L23.1016 17.4777L23.1234 17.4376L23.1243 17.4404L30.2627 4.36663C30.4097 4.09734 30.8098 4.14363 30.8914 4.43942ZM196.682 21.4746C197.272 22.0481 198.272 22.3512 199.681 22.3839L200 20.4671C199.64 20.4179 199.336 20.3606 199.091 20.295C198.845 20.2131 198.648 20.0984 198.501 19.951C198.353 19.8035 198.247 19.6069 198.181 19.3612C198.116 19.1154 198.083 18.8041 198.083 18.4273V3.06784L195.798 3.46104V18.7959C195.798 20.0083 196.093 20.9012 196.682 21.4746ZM169.189 22.1382H166.904V9.35908H169.189V22.1382ZM168.034 7.04901C167.625 7.04901 167.272 6.91795 166.977 6.65581C166.699 6.37729 166.56 6.00867 166.56 5.54993C166.56 5.09119 166.699 4.73076 166.977 4.46862C167.272 4.1901 167.625 4.05084 168.034 4.05084C168.444 4.05084 168.788 4.1901 169.066 4.46862C169.361 4.73076 169.509 5.09119 169.509 5.54993C169.509 6.00867 169.361 6.37729 169.066 6.65581C168.788 6.91795 168.444 7.04901 168.034 7.04901ZM128.556 21.917C129.539 22.3102 130.628 22.5068 131.824 22.5068C132.512 22.5068 133.151 22.4658 133.741 22.3839C134.331 22.302 134.847 22.2037 135.289 22.089C135.731 21.9743 136.1 21.8597 136.395 21.745C136.69 21.6139 136.895 21.5074 137.009 21.4255L136.395 19.4595C136.035 19.6397 135.494 19.8445 134.773 20.0739C134.052 20.3032 133.143 20.4179 132.045 20.4179C131.095 20.4179 130.259 20.2541 129.539 19.9264C128.834 19.5987 128.244 19.14 127.769 18.5502C127.294 17.944 126.934 17.2231 126.688 16.3876C126.458 15.552 126.344 14.6264 126.344 13.6106C126.344 12.562 126.475 11.62 126.737 10.7844C127.015 9.9325 127.409 9.21163 127.917 8.62183C128.424 8.03202 129.039 7.58148 129.76 7.27019C130.481 6.95891 131.292 6.80326 132.193 6.80326C132.619 6.80326 133.036 6.84422 133.446 6.92614C133.872 6.99167 134.257 7.08178 134.601 7.19647C134.961 7.31115 135.281 7.42583 135.559 7.54052C135.838 7.6552 136.051 7.76169 136.198 7.85999L136.887 5.89398C136.788 5.82845 136.608 5.73015 136.346 5.59908C136.084 5.46801 135.74 5.33694 135.314 5.20588C134.904 5.07481 134.413 4.96012 133.839 4.86182C133.282 4.76352 132.651 4.71437 131.947 4.71437C130.833 4.71437 129.784 4.91097 128.801 5.30418C127.818 5.69738 126.958 6.2708 126.221 7.02444C125.484 7.77808 124.894 8.71194 124.451 9.82601C124.026 10.9237 123.813 12.1852 123.813 13.6106C123.813 15.0359 124.001 16.3057 124.378 17.4197C124.771 18.5174 125.32 19.4431 126.024 20.1967C126.729 20.9504 127.573 21.5238 128.556 21.917ZM71.098 18.2799C71.3765 18.8861 71.5977 19.3858 71.7615 19.779H73.6784C73.8422 19.3858 74.0552 18.8861 74.3174 18.2799C74.5959 17.6737 74.8908 17.0183 75.2021 16.3139C75.5134 15.6094 75.841 14.8885 76.1851 14.1512C76.5455 13.3976 76.8814 12.6931 77.1926 12.0378C77.5039 11.3661 77.7906 10.7681 78.0528 10.2438C78.3313 9.71952 78.5525 9.31812 78.7163 9.0396C78.8965 10.9729 79.044 13.0699 79.1587 15.3308C79.2734 17.5754 79.3717 19.8445 79.4536 22.1382H81.7882C81.5097 16.2729 81.0919 10.596 80.5349 5.10758H78.446C78.0036 5.82845 77.5285 6.68039 77.0206 7.66339C76.5127 8.6464 76.0049 9.67856 75.497 10.7599C74.9891 11.8248 74.4976 12.8979 74.0225 13.9792C73.5473 15.0441 73.1132 16.019 72.72 16.9037C72.3268 16.019 71.8926 15.0441 71.4175 13.9792C70.9424 12.8979 70.4509 11.8248 69.943 10.7599C69.4351 9.67856 68.9272 8.6464 68.4193 7.66339C67.9114 6.68039 67.4363 5.82845 66.994 5.10758H64.9051C64.7576 6.33633 64.6184 7.63882 64.4873 9.01503C64.3726 10.3912 64.2579 11.8084 64.1432 13.2665C64.0449 14.7083 63.9548 16.1828 63.8729 17.6901C63.791 19.181 63.7173 20.6637 63.6517 22.1382H65.9864C66.0683 19.8445 66.1666 17.5754 66.2813 15.3308C66.396 13.0699 66.5434 10.9729 66.7236 9.0396C66.8875 9.31812 67.1004 9.71952 67.3626 10.2438C67.6411 10.7681 67.936 11.3661 68.2473 12.0378C68.5586 12.6931 68.8862 13.3976 69.2303 14.1512C69.5907 14.8885 69.9266 15.6094 70.2379 16.3139C70.5492 17.0183 70.8359 17.6737 71.098 18.2799ZM96.2161 18.501C96.511 17.6819 96.6585 16.7644 96.6585 15.7486C96.6585 14.7492 96.511 13.84 96.2161 13.0208C95.9212 12.1852 95.5035 11.4725 94.9628 10.8827C94.4385 10.2929 93.8078 9.84239 93.0705 9.53111C92.3333 9.20344 91.5305 9.0396 90.6622 9.0396C89.7938 9.0396 88.991 9.20344 88.2538 9.53111C87.5165 9.84239 86.8776 10.2929 86.3369 10.8827C85.8127 11.4725 85.4031 12.1852 85.1082 13.0208C84.8133 13.84 84.6658 14.7492 84.6658 15.7486C84.6658 16.7644 84.8133 17.6819 85.1082 18.501C85.4031 19.3202 85.8127 20.0247 86.3369 20.6145C86.8776 21.2043 87.5165 21.6631 88.2538 21.9907C88.991 22.302 89.7938 22.4577 90.6622 22.4577C91.5305 22.4577 92.3333 22.302 93.0705 21.9907C93.8078 21.6631 94.4385 21.2043 94.9628 20.6145C95.5035 20.0247 95.9212 19.3202 96.2161 18.501ZM93.2917 12.3327C93.947 13.1682 94.2747 14.3069 94.2747 15.7486C94.2747 17.1904 93.947 18.3372 93.2917 19.1892C92.6527 20.0247 91.7762 20.4425 90.6622 20.4425C89.5481 20.4425 88.6634 20.0247 88.008 19.1892C87.3691 18.3372 87.0496 17.1904 87.0496 15.7486C87.0496 14.3069 87.3691 13.1682 88.008 12.3327C88.6634 11.4807 89.5481 11.0548 90.6622 11.0548C91.7762 11.0548 92.6527 11.4807 93.2917 12.3327ZM110.006 22.1382C109.548 20.9586 109.056 19.6151 108.532 18.1078C108.024 16.5842 107.557 15.0032 107.131 13.3648C106.705 15.0032 106.238 16.5842 105.73 18.1078C105.222 19.6151 104.739 20.9586 104.28 22.1382H102.29C101.536 20.4507 100.799 18.5256 100.078 16.363C99.3572 14.2004 98.6773 11.8657 98.0384 9.35908H100.496C100.66 10.1291 100.856 10.9647 101.086 11.8657C101.315 12.7668 101.553 13.6679 101.798 14.569C102.06 15.4701 102.331 16.3384 102.609 17.174C102.888 18.0095 103.15 18.7386 103.396 19.3612C103.674 18.5912 103.945 17.7802 104.207 16.9282C104.485 16.0599 104.747 15.1916 104.993 14.3233C105.239 13.4386 105.468 12.5784 105.681 11.7429C105.911 10.8909 106.107 10.0963 106.271 9.35908H108.163C108.311 10.0963 108.491 10.8909 108.704 11.7429C108.917 12.5784 109.146 13.4386 109.392 14.3233C109.638 15.1916 109.892 16.0599 110.154 16.9282C110.432 17.7802 110.711 18.5912 110.989 19.3612C111.235 18.7386 111.489 18.0095 111.751 17.174C112.03 16.3384 112.3 15.4701 112.562 14.569C112.824 13.6679 113.07 12.7668 113.3 11.8657C113.529 10.9647 113.726 10.1291 113.889 9.35908H116.249C115.61 11.8657 114.93 14.2004 114.209 16.363C113.488 18.5256 112.751 20.4507 111.997 22.1382H110.006ZM143.918 20.4916C144.459 20.4916 144.934 20.4834 145.343 20.4671C145.769 20.4343 146.121 20.3851 146.4 20.3196V16.5105C146.236 16.4285 145.966 16.363 145.589 16.3139C145.229 16.2483 144.786 16.2156 144.262 16.2156C143.918 16.2156 143.549 16.2401 143.156 16.2893C142.779 16.3384 142.427 16.4449 142.099 16.6088C141.788 16.7562 141.526 16.9692 141.313 17.2477C141.1 17.5098 140.993 17.8621 140.993 18.3044C140.993 19.1236 141.256 19.697 141.78 20.0247C142.304 20.336 143.017 20.4916 143.918 20.4916ZM143.721 9.0396C144.639 9.0396 145.409 9.16248 146.031 9.40823C146.67 9.6376 147.178 9.97346 147.555 10.4158C147.948 10.8418 148.227 11.3579 148.391 11.964C148.554 12.5539 148.636 13.2092 148.636 13.9301V21.917C148.44 21.9498 148.161 21.9989 147.801 22.0644C147.457 22.1136 147.064 22.1627 146.621 22.2119C146.179 22.261 145.696 22.302 145.171 22.3348C144.663 22.3839 144.155 22.4085 143.648 22.4085C142.927 22.4085 142.263 22.3348 141.657 22.1873C141.051 22.0399 140.527 21.8105 140.084 21.4992C139.642 21.1715 139.298 20.7456 139.052 20.2213C138.806 19.697 138.683 19.0663 138.683 18.329C138.683 17.6245 138.823 17.0183 139.101 16.5105C139.396 16.0026 139.789 15.593 140.281 15.2817C140.772 14.9704 141.346 14.741 142.001 14.5936C142.656 14.4461 143.344 14.3724 144.065 14.3724C144.295 14.3724 144.532 14.3888 144.778 14.4216C145.024 14.438 145.253 14.4707 145.466 14.5199C145.696 14.5526 145.892 14.5854 146.056 14.6182C146.22 14.6509 146.334 14.6755 146.4 14.6919V14.0529C146.4 13.6761 146.359 13.3075 146.277 12.9471C146.195 12.5702 146.048 12.2426 145.835 11.964C145.622 11.6691 145.327 11.4398 144.95 11.2759C144.59 11.0957 144.115 11.0056 143.525 11.0056C142.771 11.0056 142.108 11.063 141.534 11.1776C140.977 11.2759 140.559 11.3824 140.281 11.4971L140.01 9.60483C140.305 9.47377 140.797 9.35089 141.485 9.23621C142.173 9.10514 142.919 9.0396 143.721 9.0396ZM160.198 12.3327C160.935 13.1355 161.304 14.2823 161.304 15.7732C161.304 16.4285 161.238 17.0429 161.107 17.6163C160.976 18.1734 160.763 18.6649 160.468 19.0909C160.173 19.5004 159.788 19.8281 159.313 20.0739C158.855 20.3032 158.298 20.4179 157.642 20.4179C157.02 20.4179 156.446 20.3114 155.922 20.0984C155.398 19.8854 154.996 19.6643 154.718 19.4349V11.3742C154.947 11.3087 155.25 11.2514 155.627 11.2022C156.02 11.1531 156.561 11.1285 157.249 11.1285C158.478 11.1285 159.461 11.5299 160.198 12.3327ZM163.294 18.4519C163.557 17.6327 163.688 16.7398 163.688 15.7732C163.688 14.741 163.532 13.8154 163.221 12.9962C162.926 12.1607 162.5 11.4562 161.943 10.8827C161.386 10.3093 160.714 9.86697 159.928 9.55568C159.141 9.2444 158.257 9.08875 157.274 9.08875C156.209 9.08875 155.267 9.17067 154.447 9.33451C153.645 9.48196 152.973 9.62122 152.432 9.75228V26.6846H154.718V21.5729C154.996 21.7532 155.414 21.9416 155.971 22.1382C156.544 22.3348 157.2 22.4331 157.937 22.4331C158.855 22.4331 159.666 22.2692 160.37 21.9416C161.091 21.6139 161.697 21.1552 162.189 20.5654C162.68 19.9756 163.049 19.2711 163.294 18.4519ZM180.099 9.35908H175.258V5.40248L172.972 5.79568V17.1986C172.972 18.0505 173.038 18.8041 173.169 19.4595C173.316 20.0984 173.562 20.6391 173.906 21.0814C174.25 21.5238 174.701 21.8597 175.258 22.089C175.831 22.302 176.552 22.4085 177.42 22.4085C178.157 22.4085 178.813 22.3184 179.386 22.1382C179.96 21.9743 180.361 21.8351 180.59 21.7204L180.148 19.8281C179.984 19.8936 179.689 20.0083 179.263 20.1722C178.854 20.3196 178.305 20.3933 177.617 20.3933C177.224 20.3933 176.88 20.3442 176.585 20.2459C176.29 20.1476 176.044 19.9837 175.847 19.7544C175.651 19.5086 175.503 19.181 175.405 18.7714C175.307 18.3454 175.258 17.8129 175.258 17.174V11.2759H180.099V9.35908ZM187.332 20.4916C187.873 20.4916 188.348 20.4834 188.758 20.4671C189.184 20.4343 189.536 20.3851 189.815 20.3196V16.5105C189.651 16.4285 189.38 16.363 189.004 16.3139C188.643 16.2483 188.201 16.2156 187.677 16.2156C187.332 16.2156 186.964 16.2401 186.571 16.2893C186.194 16.3384 185.842 16.4449 185.514 16.6088C185.203 16.7562 184.94 16.9692 184.727 17.2477C184.515 17.5098 184.408 17.8621 184.408 18.3044C184.408 19.1236 184.67 19.697 185.194 20.0247C185.719 20.336 186.431 20.4916 187.332 20.4916ZM187.136 9.0396C188.053 9.0396 188.823 9.16248 189.446 9.40823C190.085 9.6376 190.593 9.97346 190.97 10.4158C191.363 10.8418 191.641 11.3579 191.805 11.964C191.969 12.5539 192.051 13.2092 192.051 13.9301V21.917C191.854 21.9498 191.576 21.9989 191.215 22.0644C190.871 22.1136 190.478 22.1627 190.036 22.2119C189.593 22.261 189.11 22.302 188.586 22.3348C188.078 22.3839 187.57 22.4085 187.062 22.4085C186.341 22.4085 185.678 22.3348 185.072 22.1873C184.465 22.0399 183.941 21.8105 183.499 21.4992C183.056 21.1715 182.712 20.7456 182.467 20.2213C182.221 19.697 182.098 19.0663 182.098 18.329C182.098 17.6245 182.237 17.0183 182.516 16.5105C182.811 16.0026 183.204 15.593 183.695 15.2817C184.187 14.9704 184.76 14.741 185.416 14.5936C186.071 14.4461 186.759 14.3724 187.48 14.3724C187.709 14.3724 187.947 14.3888 188.193 14.4216C188.438 14.438 188.668 14.4707 188.881 14.5199C189.11 14.5526 189.307 14.5854 189.471 14.6182C189.634 14.6509 189.749 14.6755 189.815 14.6919V14.0529C189.815 13.6761 189.774 13.3075 189.692 12.9471C189.61 12.5702 189.462 12.2426 189.249 11.964C189.036 11.6691 188.741 11.4398 188.365 11.2759C188.004 11.0957 187.529 11.0056 186.939 11.0056C186.186 11.0056 185.522 11.063 184.949 11.1776C184.392 11.2759 183.974 11.3824 183.695 11.4971L183.425 9.60483C183.72 9.47377 184.211 9.35089 184.9 9.23621C185.588 9.10514 186.333 9.0396 187.136 9.0396Z" fill="#39393A"/>
</svg>
